Simply-Blue-Circles/scalable/actions/gtk-select-font.svg

<svg xmlns="http://www.w3.org/2000/svg" width="24" height="24"><path d="M19.42 3.95a1.25 1.25 0 0 0-1.25 1.25 1.25 1.25 0 0 0 1.25 1.25 1.25 1.25 0 0 0 1.25-1.25 1.25 1.25 0 0 0-1.25-1.25zM10.86 4L4.57 20h2.57l1.29-3.43h7.14L16.86 20h2.57L13.14 4h-2.28zM12 7.05l2.71 7.24H9.3L12 7.05zm7.42.65a1.25 1.25 0 0 0-1.25 1.25 1.25 1.25 0 0 0 1.25 1.25 1.25 1.25 0 0 0 1.25-1.25 1.25 1.25 0 0 0-1.25-1.25zm0 3.75a1.25 1.25 0 0 0-1.25 1.25 1.25 1.25 0 0 0 1.25 1.25 1.25 1.25 0 0 0 1.25-1.25 1.25 1.25 0 0 0-1.25-1.25z" fill="#2c89a0"/></svg>

<?xml version="1.0" encoding="UTF-8" standalone="no"?>
<svg
   xmlns:dc="http://purl.org/dc/elements/1.1/"
   xmlns:cc="http://creativecommons.org/ns#"
   xmlns:rdf="http://www.w3.org/1999/02/22-rdf-syntax-ns#"
   xmlns:svg="http://www.w3.org/2000/svg"
   xmlns="http://www.w3.org/2000/svg"
   xmlns:sodipodi="http://sodipodi.sourceforge.net/DTD/sodipodi-0.dtd"
   xmlns:inkscape="http://www.inkscape.org/namespaces/inkscape"
   width="24"
   height="24"
   version="1.1"
   id="svg4"
   sodipodi:docname="gtk-select-font.svg"
   inkscape:version="0.92.4 (5da689c313, 2019-01-14)">
  <metadata
     id="metadata10">
    <rdf:RDF>
      <cc:Work
         rdf:about="">
        <dc:format>image/svg+xml</dc:format>
        <dc:type
           rdf:resource="http://purl.org/dc/dcmitype/StillImage" />
        <dc:title></dc:title>
      </cc:Work>
    </rdf:RDF>
  </metadata>
  <defs
     id="defs8" />
  <sodipodi:namedview
     pagecolor="#ffffff"
     bordercolor="#666666"
     borderopacity="1"
     objecttolerance="10"
     gridtolerance="10"
     guidetolerance="10"
     inkscape:pageopacity="0"
     inkscape:pageshadow="2"
     inkscape:window-width="1078"
     inkscape:window-height="480"
     id="namedview6"
     showgrid="false"
     inkscape:zoom="9.8333333"
     inkscape:cx="-0.81355932"
     inkscape:cy="12"
     inkscape:window-x="0"
     inkscape:window-y="28"
     inkscape:window-maximized="0"
     inkscape:current-layer="svg4" />
  <path
     d="M 19.42,3.95 A 1.25,1.25 0 0 0 18.17,5.2 1.25,1.25 0 0 0 19.42,6.45 1.25,1.25 0 0 0 20.67,5.2 1.25,1.25 0 0 0 19.42,3.95 Z M 10.86,4 4.57,20 h 2.57 l 1.29,-3.43 h 7.14 L 16.86,20 h 2.57 L 13.14,4 Z M 12,7.05 14.71,14.29 H 9.3 Z M 19.42,7.7 A 1.25,1.25 0 0 0 18.17,8.95 1.25,1.25 0 0 0 19.42,10.2 1.25,1.25 0 0 0 20.67,8.95 1.25,1.25 0 0 0 19.42,7.7 Z m 0,3.75 a 1.25,1.25 0 0 0 -1.25,1.25 1.25,1.25 0 0 0 1.25,1.25 1.25,1.25 0 0 0 1.25,-1.25 1.25,1.25 0 0 0 -1.25,-1.25 z"
     id="path2"
     inkscape:connector-curvature="0"
     style="fill:#2c89a0" />
</svg>
